svg/Outline/extension-puzzle.svg

<svg viewBox="0 0 24 24" xmlns="http://www.w3.org/2000/svg" width="24" height="24"><path fill-rule="evenodd" d="M10.93 1.54a3.2 3.2 0 0 1 2.96 3.21v.46h2.74a2.7 2.7 0 0 1 2.69 2.69v2.74h.46a3.17 3.17 0 1 1 .04 6.36h-.5v2.78a2.7 2.7 0 0 1-2.69 2.69h-3.27a1 1 0 0 1-1-1V20.2c0-.71-.6-1.35-1.5-1.4l-.2-.01c-.88.02-1.64.8-1.64 1.72v.96a1 1 0 0 1-1 1H4.8a2.73 2.73 0 0 1-2.72-2.72V16.5a1 1 0 0 1 .29-.7l.07-.07a1 1 0 0 1 .63-.22h1.27c.76 0 1.47-.69 1.55-1.55v-.17a1.66 1.66 0 0 0-1.58-1.64H3.06a1 1 0 0 1-1-.99V7.93l.02-.27a2.73 2.73 0 0 1 2.7-2.45h2.75v-.66a3.2 3.2 0 0 1 3.24-3.02zm-.2 1.8a1.4 1.4 0 0 0-1.4 1.37v1.31a1 1 0 0 1-.99 1H4.7a.93.93 0 0 0-.83.92v2.42h.43c1.87 0 3.36 1.6 3.38 3.41v.17c-.06 1.75-1.47 3.37-3.35 3.37h-.46v2.53a.93.93 0 0 0 .92.83h2.43v-.16a3.54 3.54 0 0 1 3.4-3.52h.34c1.65.12 3.2 1.34 3.2 3.2v.48h2.47a.9.9 0 0 0 .89-.9V16.2a1 1 0 0 1 .29-.7l.07-.07a1 1 0 0 1 .63-.22h1.31a1.4 1.4 0 0 0 1.38-1.42c0-.73-.62-1.33-1.42-1.34h-1.27a1 1 0 0 1-1-.99V7.9a.9.9 0 0 0-.88-.89h-3.55a1 1 0 0 1-1-.99V4.75a1.4 1.4 0 0 0-1.2-1.4z" clip-rule="evenodd"/></svg>

<svg viewBox="0 0 24 24" xmlns="http://www.w3.org/2000/svg" width="24" height="24"><path fill-rule="evenodd" d="M10.93 1.54A3.2 3.2 0 0 1 13.89 4.75L13.89 5.21L16.63 5.21A2.7 2.7 0 0 1 19.32 7.9L19.32 10.64L19.78 10.64A3.17 3.17 0 1 1 19.82 17L19.32 17L19.32 19.78A2.7 2.7 0 0 1 16.63 22.47L13.36 22.47A1 1 0 0 1 12.36 21.47L12.36 20.2C12.36 19.49 11.76 18.85 10.86 18.8L10.66 18.79C9.78 18.81 9.02 19.59 9.02 20.51L9.02 21.47A1 1 0 0 1 8.02 22.47L4.8 22.47A2.73 2.73 0 0 1 2.08 19.75L2.08 16.5A1 1 0 0 1 2.37 15.8L2.44 15.73A1 1 0 0 1 3.07 15.51L4.34 15.51C5.1 15.51 5.81 14.82 5.89 13.96L5.89 13.79A1.66 1.66 0 0 0 4.31 12.15L3.06 12.15A1 1 0 0 1 2.06 11.16L2.08 7.66A2.73 2.73 0 0 1 4.78 5.21L7.53 5.21L7.53 4.55A3.2 3.2 0 0 1 10.77 1.53ZM10.73 3.34a1.4 1.4 0 0 0-1.4 1.37v1.31a1 1 0 0 1-.99 1H4.7a.93.93 0 0 0-.83.92v2.42h.43c1.87 0 3.36 1.6 3.38 3.41v.17c-.06 1.75-1.47 3.37-3.35 3.37h-.46v2.53a.93.93 0 0 0 .92.83h2.43v-.16a3.54 3.54 0 0 1 3.4-3.52h.34c1.65.12 3.2 1.34 3.2 3.2v.48h2.47a.9.9 0 0 0 .89-.9V16.2a1 1 0 0 1 .29-.7l.07-.07a1 1 0 0 1 .63-.22h1.31a1.4 1.4 0 0 0 1.38-1.42c0-.73-.62-1.33-1.42-1.34h-1.27a1 1 0 0 1-1-.99V7.9a.9.9 0 0 0-.88-.89h-3.55a1 1 0 0 1-1-.99V4.75a1.4 1.4 0 0 0-1.2-1.4z" clip-rule="evenodd"/></svg>
